X:80
T:First Pint, The
M:6/8
L:1/8
Q:120
C:Colin Farrell
R:Jig (Key of D)
K:Dmaj
"D"dAB d2A | Bdf e2d | "G"~B3 ede | "A"faa g2f |
dAB d2A | "D"Bdf e2d | "G"~B3 edB |1 "A"AFE "D"D3 :|2 "A"AFE "D"DFA |:
"G"~B3 BAF | ABc d2B | "D"~A3 AFE | FGA DFA |
"G"~B3 BAF | ABc d2c |"D"~d3 dBA |1 "A"abg efd :|2 "A"abg efe|]
